X: 117
T:The Ale is Dear
G:reel for pipes or fiddle
M:4/4
L:1/8
Q:1/2=112
K:BMin
% dorian/minor hexatonic
e|f2ef B2fe|faef cAAe|f2ef B2fe|faec B3:|
c|B3 c d2cB|A3 B ABcA|B3 c d2cB|efec B3c|
  B3 c d2cB|A3 B ABcA|d2fd c2ec|efec B3|]

It's still commonly used in modern tunes:

